public/advantage-global.svg

<svg width="72" height="87" viewBox="0 0 72 87" fill="none" xmlns="http://www.w3.org/2000/svg">
<path fill-rule="evenodd" clip-rule="evenodd" d="M35.8611 78.5621C42.8313 78.5621 49.6449 76.4953 55.4404 72.6228C61.2359 68.7504 65.753 63.2463 68.4204 56.8066C71.0878 50.367 71.7858 43.281 70.426 36.4448C69.0662 29.6085 65.7097 23.329 60.781 18.4003C55.8523 13.4716 49.5728 10.1151 42.7366 8.75532C35.9003 7.3955 28.8141 8.09336 22.3745 10.7607C15.9349 13.4281 10.4308 17.9452 6.55835 23.7407C2.68591 29.5362 0.619141 36.3499 0.619141 43.3201C0.621791 52.6661 4.33551 61.6285 10.9441 68.2371C17.5527 74.8456 26.5151 78.5595 35.8611 78.5621Z" fill="white"/>
<path fill-rule="evenodd" clip-rule="evenodd" d="M35.8601 8.69706C29.0121 8.69667 22.3178 10.727 16.6238 14.5313C10.9297 18.3356 6.49158 23.743 3.87083 30.0697C1.25008 36.3963 0.564418 43.3581 1.90037 50.0745C3.23632 56.7909 6.53387 62.9603 11.3762 67.8025C16.2185 72.6447 22.388 75.9422 29.1045 77.278C35.8209 78.6138 42.7828 77.9278 49.1094 75.3069C55.4359 72.6859 60.8433 68.2477 64.6474 62.5536C68.4516 56.8594 70.4815 50.1651 70.4809 43.3171C70.4714 34.138 66.821 25.3376 60.3303 18.8471C53.8396 12.3567 45.0391 8.70633 35.8601 8.69706ZM35.8601 79.181C28.7674 79.1806 21.8342 77.0771 15.937 73.1364C10.0398 69.1957 5.44353 63.5948 2.72947 57.0419C0.0154107 50.4891 -0.694617 43.2786 0.689189 36.3222C2.073 29.3659 5.48862 22.9761 10.5039 17.9608C15.5192 12.9455 21.9089 9.53003 28.8652 8.14622C35.8216 6.76241 43.0321 7.47244 49.5849 10.1865C56.1378 12.9006 61.7387 17.4967 65.6794 23.3939C69.6201 29.2911 71.7237 36.2244 71.7241 43.3171C71.7146 52.8259 67.933 61.9424 61.2092 68.6662C54.4855 75.3899 45.3689 79.1715 35.8601 79.181Z" fill="#1B69FF"/>
<path fill-rule="evenodd" clip-rule="evenodd" d="M35.0591 6.15247C36.7881 3.22247 38.5059 1.37247 40.0979 0.545471C40.6722 0.207211 41.323 0.0200627 41.9893 0.0015255C42.6555 -0.0170117 43.3157 0.133649 43.908 0.439453C45.1586 1.20441 46.1321 2.34914 46.686 3.70648C47.6339 5.85621 48.2814 8.12615 48.6101 10.4525C47.9311 10.1895 47.2449 9.95247 46.5649 9.73047C46.2557 7.93957 45.7284 6.19324 44.9949 4.53046C44.6036 3.54438 43.9196 2.70189 43.0349 2.11645C42.7089 1.96025 42.3488 1.88856 41.9878 1.90796C41.6268 1.92736 41.2764 2.03723 40.969 2.22748C39.678 2.89648 38.2289 4.50449 36.6689 7.11249C33.2429 12.8675 30.1339 22.1645 27.8689 32.5515C25.5482 43.0442 24.3193 53.7488 24.2019 64.4944C24.2019 72.8054 25.1451 78.7945 26.7371 82.1025C27.128 83.086 27.8099 83.9265 28.6919 84.5115C29.018 84.6676 29.3783 84.7392 29.7393 84.7198C30.1003 84.7005 30.4506 84.5906 30.7581 84.4005C32.0491 83.7365 33.4831 82.1285 35.0581 79.5145C35.2321 79.2095 35.4271 78.8875 35.6011 78.5555H35.8589C36.5129 78.5555 37.1401 78.5395 37.7671 78.5035C37.4191 79.2035 37.05 79.8625 36.667 80.4795C34.939 83.4145 33.2259 85.2595 31.6189 86.0875C31.0472 86.425 30.3995 86.6122 29.7358 86.6317C29.0722 86.6511 28.4144 86.502 27.824 86.1985C26.5714 85.4318 25.5964 84.2851 25.041 82.9255C23.328 79.3735 22.2949 73.0915 22.2949 64.4955C22.4213 53.6147 23.6699 42.776 26.021 32.1515C28.314 21.5965 31.5121 12.0965 35.0591 6.15247Z" fill="#1B69FF"/>
<path fill-rule="evenodd" clip-rule="evenodd" d="M24.8818 47.241C26.3189 47.2425 27.7242 46.8179 28.9199 46.0207C30.1156 45.2235 31.0482 44.0896 31.5994 42.7624C32.1506 41.4352 32.2958 39.9743 32.0166 38.5646C31.7374 37.1549 31.0464 35.8597 30.031 34.8427C29.0156 33.8258 27.7213 33.1328 26.312 32.8515C24.9027 32.5702 23.4418 32.7131 22.1138 33.2623C20.7857 33.8115 19.6503 34.7422 18.8513 35.9367C18.0523 37.1312 17.6256 38.5359 17.625 39.973C17.6253 41.8986 18.3894 43.7454 19.75 45.108C21.1106 46.4707 22.9562 47.2378 24.8818 47.241Z" fill="#1B69FF"/>
<path fill-rule="evenodd" clip-rule="evenodd" d="M25.3522 33.9559C24.0684 33.9555 22.8133 34.3359 21.7458 35.0489C20.6782 35.7619 19.8459 36.7755 19.3544 37.9614C18.8629 39.1474 18.7344 40.4525 18.9848 41.7116C19.2351 42.9707 19.8531 44.1273 20.7609 45.035C21.6687 45.9428 22.8253 46.561 24.0844 46.8114C25.3435 47.0617 26.6486 46.933 27.8346 46.4415C29.0206 45.9501 30.0342 45.1179 30.7472 44.0504C31.4602 42.9828 31.8404 41.7277 31.84 40.4439C31.8397 38.7233 31.1563 37.0732 29.9396 35.8565C28.7229 34.6398 27.0728 33.9562 25.3522 33.9559ZM25.3522 48.1749C23.823 48.1749 22.3281 47.7215 21.0565 46.8719C19.785 46.0223 18.7939 44.8147 18.2086 43.4019C17.6234 41.989 17.4704 40.4344 17.7687 38.9345C18.067 37.4347 18.8033 36.0569 19.8847 34.9756C20.966 33.8943 22.3438 33.1578 23.8437 32.8595C25.3435 32.5612 26.8981 32.7143 28.3109 33.2995C29.7238 33.8847 30.9313 34.8758 31.7809 36.1473C32.6305 37.4188 33.0841 38.9137 33.0841 40.4429C33.0831 42.4933 32.2681 44.4593 30.8183 45.9091C29.3685 47.3589 27.4025 48.1739 25.3522 48.1749Z" fill="#1B69FF"/>
</svg>

<svg xmlns="http://www.w3.org/2000/svg" width="72" height="87" fill="none" viewBox="0 0 72 87"><path fill="#fff" fill-rule="evenodd" d="M35.861 78.562A35.241 35.241 0 1 0 .62 43.32a35.25 35.25 0 0 0 35.242 35.242" clip-rule="evenodd"/><path fill="#1b69ff" fill-rule="evenodd" d="M35.86 8.697a34.623 34.623 0 1 0 34.62 34.62 34.656 34.656 0 0 0-34.62-34.62m0 70.484a35.862 35.862 0 1 1 35.864-35.864A35.9 35.9 0 0 1 35.86 79.181" clip-rule="evenodd"/><path fill="#1b69ff" fill-rule="evenodd" d="M35.06 6.152c1.728-2.93 3.446-4.78 5.038-5.607a3.94 3.94 0 0 1 3.81-.106 6.88 6.88 0 0 1 2.778 3.267 25.6 25.6 0 0 1 1.924 6.747c-.679-.263-1.365-.5-2.045-.723a22.3 22.3 0 0 0-1.57-5.2 5.2 5.2 0 0 0-1.96-2.414 2.16 2.16 0 0 0-2.066.111c-1.291.67-2.74 2.277-4.3 4.885-3.426 5.756-6.535 15.052-8.8 25.44a155.8 155.8 0 0 0-3.667 31.942c0 8.311.943 14.3 2.535 17.609a5.2 5.2 0 0 0 1.955 2.409 2.16 2.16 0 0 0 2.066-.112c1.291-.663 2.725-2.272 4.3-4.886.174-.304.37-.626.543-.959h.258c.654 0 1.281-.016 1.908-.052q-.524 1.05-1.1 1.977c-1.728 2.935-3.441 4.78-5.048 5.608a3.93 3.93 0 0 1-3.795.11 6.9 6.9 0 0 1-2.783-3.272c-1.713-3.552-2.746-9.835-2.746-18.43a158.2 158.2 0 0 1 3.726-32.344c2.293-10.556 5.491-20.056 9.038-26" clip-rule="evenodd"/><path fill="#1b69ff" fill-rule="evenodd" d="M24.882 47.241a7.266 7.266 0 1 0 .015-14.531 7.266 7.266 0 0 0-.015 14.531" clip-rule="evenodd"/><path fill="#1b69ff" fill-rule="evenodd" d="M25.352 33.956a6.49 6.49 0 1 0-.004 12.98 6.49 6.49 0 0 0 .004-12.98m0 14.219a7.732 7.732 0 1 1 0-15.465 7.732 7.732 0 0 1 0 15.465" clip-rule="evenodd"/></svg>
